X:134
T:Tammas has ridden & Tammas has run
Z:Jack Campin - http://www.campin.me.uk
S:Blaikie MS (NLS MS.1578) p39, Blaikie #128
M:2/4
L:1/8
Q:1/4=90
V:1 midi program 1 74
V:2 midi program 1 46 bass middle = d transpose -24
K:G
[V:1] DG/G/ GG/G/|GE/D/ DD|G2 AA|Bd`BG|AABd|BA/G/ ED |D/E/G Ad|B/A/G G2|]
[V:2] Gg    bg   |Gg    bg|Gg fd|Gg Gg|d2g2|gb    c'b|g2    d2|Gg    g2|]
W:Transcription (c) Jack Campin 2009, no mirroring or republication without permission







